src/assets/toolkit/images/ghost-image-square.svg

<svg xmlns="http://www.w3.org/2000/svg" width="225" height="225" viewBox="0 0 225 225">
  <g fill="none" fill-rule="evenodd">
    <polygon fill="#E1E7EB" points="0 0 225 0 225 225 0 225"/>
    <path fill="#A6ADB3" d="M157.129,65.501 C157.129,65.501 157.467,65.518 157.635,65.539 C158.045,65.591 158.448,65.694 158.833,65.846 C160.16065,66.3731045 161.20157,67.4398386 161.696,68.78 C161.824,69.13 161.913,69.494 161.96,69.864 C161.981,70.032 161.998,70.37 161.998,70.37 L162,160.505 C162,160.505 161.991,160.841 161.974,161.009 C161.865836,162.071602 161.419237,163.071367 160.7,163.861 C160.18435,164.42818 159.545705,164.869793 158.833,165.152 C158.448022,165.303862 158.045567,165.406995 157.635,165.459 C157.467,165.48 157.129,165.497 157.129,165.497 L66.994,165.499 C66.994,165.499 66.658,165.49 66.49,165.473 C65.3868414,165.360982 64.3525796,164.884144 63.551,164.118 C63.0253649,163.616628 62.6146078,163.007316 62.347,162.332 C62.1951381,161.947022 62.0920049,161.544567 62.04,161.134 C62.019,160.966 62.002,160.628 62.002,160.628 L62,70.493 C62,70.493 62.009,70.157 62.026,69.989 C62.1341637,68.9263981 62.5807629,67.9266329 63.3,67.137 C63.8156503,66.5698195 64.4542952,66.128207 65.167,65.846 C65.551978,65.6941381 65.9544326,65.5910049 66.365,65.539 C66.533,65.518 66.871,65.501 66.871,65.501 L157.129,65.501 L157.129,65.501 Z M67.006,67.499 C67.006,67.499 66.303,67.559 65.969,67.681 C65.142,67.988 64.489,68.641 64.182,69.468 C64.069,69.775 64.001,70.421 64.001,70.421 L64.001,160.577 C64.001,160.577 64.079,161.271 64.208,161.598 C64.5256183,162.394167 65.1653995,163.018689 65.969,163.317 C66.276,163.43 66.922,163.498 66.922,163.498 L157.078,163.498 C157.078,163.498 157.724,163.43 158.031,163.317 C158.8346,163.018689 159.474382,162.394167 159.792,161.598 C159.921,161.271 159.999,160.577 159.999,160.577 L159.999,70.421 C159.999,70.421 159.931,69.775 159.818,69.468 C159.519689,68.6643995 158.895167,68.0246183 158.099,67.707 C157.772,67.578 157.078,67.5 157.078,67.5 L67.006,67.499 L67.006,67.499 Z M107,125.818 L123.375,112.718 C123.473,112.65 123.496,112.627 123.606,112.58 C123.688612,112.544205 123.775767,112.519976 123.865,112.508 C123.91,112.502 123.955,112.502 124,112.499 L124.135,112.508 C124.252,112.532 124.283,112.532 124.394,112.58 C124.504,112.627 124.527,112.65 124.625,112.718 L154.625,136.718 C154.714,136.8 154.741,136.817 154.812,136.916 C155.086018,137.301157 155.053263,137.825502 154.733442,138.173563 C154.413622,138.521624 153.893914,138.598526 153.487,138.358 C153.448,138.334 153.413,138.306 153.375,138.28 L124,114.78 L108.601,127.099 L123.28,138.842 C123.315,138.874 123.352,138.904 123.384,138.939 C123.60096,139.168217 123.696574,139.486625 123.641781,139.797446 C123.586988,140.108267 123.38826,140.374788 123.106,140.516 C122.802071,140.668791 122.441415,140.65712 122.148,140.485 C122.107,140.461 122.069,140.431 122.03,140.404 L100,122.78 L70.625,146.28 L70.507,146.361 C70.465,146.382 70.423,146.406 70.379,146.424 C70.1108984,146.534845 69.8077714,146.523158 69.549,146.392 C69.1092674,146.16387 68.8990292,145.651177 69.052,145.18 C69.098,145.044 69.173,144.92 69.271,144.815 C69.303,144.78 69.34,144.75 69.375,144.718 L99.375,120.718 C99.473,120.65 99.496,120.627 99.606,120.58 C99.6886119,120.544205 99.7757667,120.519976 99.865,120.508 C99.91,120.502 99.955,120.502 100,120.499 L100.135,120.508 C100.252,120.532 100.283,120.532 100.394,120.58 C100.504,120.627 100.527,120.65 100.625,120.718 L107,125.818 L107,125.818 Z M84.116,84.5 C85.3909202,84.5141207 86.6480612,84.8008729 87.803,85.341 C89.6504171,86.2086538 91.1512765,87.6739295 92.063,89.5 C92.442,90.261 92.71,91.072 92.859,91.908 C93.1958393,93.7717239 92.9339957,95.6942435 92.111,97.4 C91.1422262,99.408548 89.4645111,100.987595 87.401,101.833 C85.2206084,102.720977 82.7793916,102.720977 80.599,101.833 C78.5362698,100.986382 76.8589369,99.4076951 75.889,97.4 C75.0660043,95.6942435 74.8041607,93.7717239 75.141,91.908 C75.2901288,91.0714772 75.5581781,90.2605944 75.937,89.5 C76.8487235,87.6739295 78.3495829,86.2086538 80.197,85.341 C81.3519388,84.8008729 82.6090798,84.5141207 83.884,84.5 L84.116,84.5 L84.116,84.5 Z M83.909,86.5 C82.9183269,86.5105823 81.9414128,86.7332437 81.044,87.153 C79.6587973,87.8040073 78.522222,88.8868944 77.805,90.239 C77.1318293,91.5121932 76.8701396,92.9628419 77.056,94.391 C77.1471227,95.1058418 77.3488669,95.8021631 77.654,96.455 C78.3904564,98.0258926 79.6804505,99.2699554 81.277,99.949 C82.9636682,100.659796 84.8613699,100.683122 86.565,100.014 C88.8778347,99.0954577 90.5334189,97.023506 90.919,94.565 C91.0357219,93.8003013 91.0262631,93.0216377 90.891,92.26 C90.7696877,91.5823486 90.5482655,90.9265074 90.234,90.314 C89.5468098,88.9788413 88.4522485,87.8972396 87.109,87.226 C86.2248013,86.7870786 85.2574541,86.5409811 84.271,86.504 C84.15,86.5 84.03,86.499 83.909,86.5 L83.909,86.5 Z"/>
  </g>
</svg>

<svg xmlns="http://www.w3.org/2000/svg" viewBox="0 0 225 225"><g fill="none"><path fill="#E1E7EB" d="M0 0h225v225h-225z"/><path fill="#A6ADB3" d="M157.129 65.501l.506.038c.41.052.813.155 1.198.307 1.328.527 2.369 1.594 2.863 2.934.128.35.217.714.264 1.084l.038.506.002 90.135-.026.504c-.108 1.063-.555 2.062-1.274 2.852-.516.567-1.154 1.009-1.867 1.291-.385.152-.787.255-1.198.307l-.506.038-90.135.002-.504-.026c-1.103-.112-2.137-.589-2.939-1.355-.526-.501-.936-1.111-1.204-1.786-.152-.385-.255-.787-.307-1.198l-.038-.506-.002-90.135.026-.504c.108-1.063.555-2.062 1.274-2.852.516-.567 1.154-1.009 1.867-1.291.385-.152.787-.255 1.198-.307l.506-.038h90.258zm-90.123 1.998s-.703.06-1.037.182c-.827.307-1.48.96-1.787 1.787-.113.307-.181.953-.181.953v90.156s.078.694.207 1.021c.318.796.957 1.421 1.761 1.719.307.113.953.181.953.181h90.156s.646-.068.953-.181c.804-.298 1.443-.923 1.761-1.719.129-.327.207-1.021.207-1.021v-90.156s-.068-.646-.181-.953c-.298-.804-.923-1.443-1.719-1.761-.327-.129-1.021-.207-1.021-.207l-90.072-.001zm39.994 58.319l16.375-13.1.231-.138.259-.072.135-.009.135.009.259.072.231.138 30 24 .187.198c.274.385.241.91-.079 1.258s-.84.425-1.246.184l-.112-.078-29.375-23.5-15.399 12.319 14.679 11.743.104.097c.217.229.313.548.258.858-.055.311-.254.577-.536.719-.304.153-.665.141-.958-.031l-.118-.081-22.03-17.624-29.375 23.5-.118.081-.128.063c-.268.111-.571.099-.83-.032-.44-.228-.65-.741-.497-1.212.046-.136.121-.26.219-.365l.104-.097 30-24 .231-.138.259-.072.135-.009.135.009.259.072.231.138 6.375 5.1zm-22.884-41.318c1.275.014 2.532.301 3.687.841 1.847.868 3.348 2.333 4.26 4.159.379.761.647 1.572.796 2.408.337 1.864.075 3.786-.748 5.492-.969 2.009-2.646 3.588-4.71 4.433-2.18.888-4.622.888-6.802 0-2.063-.847-3.74-2.425-4.71-4.433-.823-1.706-1.085-3.628-.748-5.492.149-.837.417-1.647.796-2.408.912-1.826 2.413-3.291 4.26-4.159 1.155-.54 2.412-.827 3.687-.841h.232zm-.207 2c-.991.011-1.968.233-2.865.653-1.385.651-2.522 1.734-3.239 3.086-.673 1.273-.935 2.724-.749 4.152.091.715.293 1.411.598 2.064.736 1.571 2.026 2.815 3.623 3.494 1.687.711 3.584.734 5.288.065 2.313-.919 3.968-2.99 4.354-5.449.117-.765.107-1.543-.028-2.305-.121-.678-.343-1.333-.657-1.946-.687-1.335-1.782-2.417-3.125-3.088-.884-.439-1.852-.685-2.838-.722l-.362-.004z"/></g></svg>
